Yaru++/apps/scalable/org.gnome.Software.svg

<svg enable-background="new" height="256" viewBox="0 0 256 256" width="256" xmlns="http://www.w3.org/2000/svg" xmlns:xlink="http://www.w3.org/1999/xlink"><linearGradient id="a" gradientTransform="matrix(0 1 -1 0 282.82524 -14.32814)" gradientUnits="userSpaceOnUse" x1="24.987097" x2="292.57532" y1="298.46219" y2="-5.117954"><stop offset="0" stop-color="#e8e8e8"/><stop offset="1" stop-color="#f5f5f5"/></linearGradient><linearGradient id="b" gradientTransform="matrix(0 -1 1 0 -10.0054 585.9946)" gradientUnits="userSpaceOnUse" x1="88" x2="488" y1="88" y2="488"><stop offset="0" stop-opacity=".588235"/><stop offset=".88" stop-opacity="0"/><stop offset="1"/></linearGradient><filter id="c" color-interpolation-filters="sRGB" height="1.087725" width="1.105998" x="-.052999" y="-.043863"><feGaussianBlur stdDeviation="8.4801079"/></filter><filter id="d" color-interpolation-filters="sRGB" height="1.021931" width="1.0265" x="-.01325" y="-.010966"><feGaussianBlur stdDeviation="2.120027"/></filter><path d="m189.84323 74c-70.59344 0-78.18921 7.250835-77.84323 77.98706v146.01294 146.01294c-.34598 70.73623 7.24979 77.98706 77.84323 77.98706h196.31354c70.59344 0 76.00668-7.27384 77.84323-77.98706v-146.01294-146.01294c0-70.737067-7.24979-77.98706-77.84323-77.98706z" filter="url(#d)" opacity=".1" transform="matrix(0 .5 -.5 0 275.82523 -5.328148)"/><path d="m189.84323 74c-70.59344 0-78.18921 7.250835-77.84323 77.98706v146.01294 146.01294c-.34598 70.73623 7.24979 77.98706 77.84323 77.98706h196.31354c70.59344 0 77.84323-7.24999 77.84323-77.98706v-146.01294-146.01294c0-70.737067-7.24979-77.98706-77.84323-77.98706z" fill="url(#b)" filter="url(#c)" opacity=".3" transform="matrix(0 .5 -.5 0 275.82523 -5.328148)"/><path d="m240.83043 87.478254c0-36.098811-3.69016-39.983003-39.68984-39.806081h-74.31016-74.310151c-35.99969-.176922-39.68984 3.70727-39.68984 39.806081v100.387316c0 36.09882 3.68973 39.80608 39.68984 39.80608h74.310151 74.31016c36.00011 0 39.68984-3.70726 39.68984-39.80608z" opacity=".1"/><path d="m238.82523 186.74484c0 35.29673-3.62542 39.09461-38.99353 38.92161h-73.00647-73.006461c-35.36812.17299-38.99353-3.62488-38.99353-38.92161v-98.156766c0-35.296716 3.625-38.921616 38.99353-38.921616h73.006461 73.00647c35.36853 0 38.99353 3.6249 38.99353 38.921616z" fill="url(#a)"/><path d="m14.827939 137.66916v8 41.00585c0 35.36854 3.625165 38.99415 38.921875 38.99415h146.156246c35.29673 0 39.09486-3.62603 38.92187-38.99414v-41.00586-8z" fill="#a2bcfe" opacity=".75"/><path d="m174.7665 135.24152a48 48 0 0 1 -45.50321 50.3658 48 48 0 0 1 -50.373148-45.49507 48 48 0 0 1 45.486938-50.380496 48 48 0 0 1 50.38784 45.478806" fill="#1a7fd4"/><g fill="#e7f0fc"><rect height="9.6" rx="2" width="9.6" x="122.02794" y="132.86914"/><rect height="9.6" rx="2" width="9.6" x="141.22794" y="132.86914"/><rect height="9.6" rx="2" width="9.6" x="102.82794" y="132.86914"/><rect height="9.6" rx="2" width="9.6" x="102.82794" y="113.66915"/><rect height="9.6" rx="2" width="9.6" x="122.02794" y="113.66915"/><rect height="9.6" rx="2" width="9.6" x="141.22794" y="113.66915"/><rect height="9.6" rx="2" width="9.6" x="141.22794" y="152.06915"/><rect height="9.6" rx="2" width="9.6" x="122.02794" y="152.06915"/><rect height="9.6" rx="2" width="9.6" x="102.82794" y="152.06915"/></g><path d="m53.818173 49.667201c-35.36853 0-38.992187 3.623202-38.992187 38.919923v98.158196c0 .0882.0019.16224.002.25v-96.410146c-.000047-35.29672 3.625564-38.921879 38.994094-38.921879h73.00585 73.00586c35.28016 0 38.97394 3.621035 38.99219 38.671879v-1.74805c0-35.296721-3.62561-38.919923-38.99414-38.919923h-73.00586z" fill="#fff" opacity=".6"/><path d="m14.825986 184.74532v2c0 35.29673 3.624067 39.09488 38.992187 38.92188h73.007807 73.00586c35.36811.17299 38.99414-3.62515 38.99414-38.92188v-2c0 35.29673-3.62603 39.09488-38.99414 38.92188h-73.00586-73.007807c-35.36812.17299-38.992187-3.62515-38.992187-38.92188z" opacity=".2"/><path d="m91.825235 53.669159s0-35 34.999995-35c35 0 35 35 35 35" fill="none" stroke="#1a7fd4" stroke-linecap="round" stroke-width="10"/></svg>

<?xml version="1.0" encoding="UTF-8" standalone="no"?>
<svg
   xmlns:dc="http://purl.org/dc/elements/1.1/"
   xmlns:cc="http://creativecommons.org/ns#"
   xmlns:rdf="http://www.w3.org/1999/02/22-rdf-syntax-ns#"
   xmlns:svg="http://www.w3.org/2000/svg"
   xmlns="http://www.w3.org/2000/svg"
   xmlns:xlink="http://www.w3.org/1999/xlink"
   xmlns:sodipodi="http://sodipodi.sourceforge.net/DTD/sodipodi-0.dtd"
   xmlns:inkscape="http://www.inkscape.org/namespaces/inkscape"
   enable-background="new"
   height="256"
   viewBox="0 0 256 256"
   width="256"
   version="1.1"
   id="svg54"
   sodipodi:docname="org.gnome.Software.svg"
   inkscape:version="0.92.5 (2060ec1f9f, 2020-04-08)">
  <metadata
     id="metadata60">
    <rdf:RDF>
      <cc:Work
         rdf:about="">
        <dc:format>image/svg+xml</dc:format>
        <dc:type
           rdf:resource="http://purl.org/dc/dcmitype/StillImage" />
        <dc:title></dc:title>
      </cc:Work>
    </rdf:RDF>
  </metadata>
  <defs
     id="defs58">
    <linearGradient
       inkscape:collect="always"
       xlink:href="#linearGradient4245"
       id="linearGradient4886"
       x1="24.987097"
       y1="298.46219"
       x2="292.57532"
       y2="-5.1179543"
       gradientUnits="userSpaceOnUse"
       gradientTransform="rotate(90,148.57669,134.24855)" />
    <linearGradient
       id="linearGradient4245"
       inkscape:collect="always">
      <stop
         id="stop4241"
         offset="0"
         style="stop-color:#e8e8e8;stop-opacity:1" />
      <stop
         id="stop4243"
         offset="1"
         style="stop-color:#f5f5f5;stop-opacity:1" />
    </linearGradient>
    <linearGradient
       inkscape:collect="always"
       xlink:href="#linearGradient4360"
       id="linearGradient4358"
       x1="88"
       y1="88"
       x2="488"
       y2="488"
       gradientUnits="userSpaceOnUse"
       gradientTransform="rotate(-90,287.9946,298)" />
    <linearGradient
       id="linearGradient4360"
       inkscape:collect="always">
      <stop
         id="stop4362"
         offset="0"
         style="stop-color:#000000;stop-opacity:0.58823532" />
      <stop
         style="stop-color:#000000;stop-opacity:0"
         offset="0.88"
         id="stop4364" />
      <stop
         id="stop4366"
         offset="1"
         style="stop-color:#000000;stop-opacity:1" />
    </linearGradient>
    <filter
       inkscape:collect="always"
       style="color-interpolation-filters:sRGB"
       id="filter4380"
       x="-0.052999184"
       width="1.1059984"
       y="-0.043862626"
       height="1.0877253">
      <feGaussianBlur
         inkscape:collect="always"
         stdDeviation="8.4801079"
         id="feGaussianBlur4382" />
    </filter>
    <filter
       inkscape:collect="always"
       style="color-interpolation-filters:sRGB"
       id="filter4346"
       x="-0.013249796"
       width="1.0264996"
       y="-0.010965657"
       height="1.0219313">
      <feGaussianBlur
         inkscape:collect="always"
         stdDeviation="2.120027"
         id="feGaussianBlur4348" />
    </filter>
  </defs>
  <sodipodi:namedview
     pagecolor="#ffffff"
     bordercolor="#666666"
     borderopacity="1"
     objecttolerance="10"
     gridtolerance="10"
     guidetolerance="10"
     inkscape:pageopacity="0"
     inkscape:pageshadow="2"
     inkscape:window-width="1920"
     inkscape:window-height="1016"
     id="namedview56"
     showgrid="false"
     inkscape:zoom="0.921875"
     inkscape:cx="-79.728814"
     inkscape:cy="128"
     inkscape:window-x="0"
     inkscape:window-y="27"
     inkscape:window-maximized="1"
     inkscape:current-layer="svg54" />
  <linearGradient
     id="a"
     gradientTransform="matrix(0 -1 1 0 -10.0054 585.9946)"
     gradientUnits="userSpaceOnUse"
     x1="88"
     x2="488"
     y1="88"
     y2="488">
    <stop
       offset="0"
       stop-opacity=".588235"
       id="stop2" />
    <stop
       offset=".88"
       stop-opacity="0"
       id="stop4" />
    <stop
       offset="1"
       id="stop6" />
  </linearGradient>
  <filter
     id="b"
     color-interpolation-filters="sRGB"
     height="1.08"
     width="1.014118"
     x="-.007059"
     y="-.04">
    <feGaussianBlur
       stdDeviation=".4"
       id="feGaussianBlur9" />
  </filter>
  <filter
     id="c"
     color-interpolation-filters="sRGB"
     height="1.023738"
     width="1.024268"
     x="-.012134"
     y="-.011869">
    <feGaussianBlur
       stdDeviation=".67258301"
       id="feGaussianBlur12" />
  </filter>
  <linearGradient
     id="d"
     gradientTransform="matrix(0 -1 1 0 -29.17475 289.66645)"
     gradientUnits="userSpaceOnUse"
     x1="24.987097"
     x2="292.57532"
     y1="298.46219"
     y2="-5.117954">
    <stop
       offset="0"
       stop-color="#f37e40"
       id="stop15" />
    <stop
       offset="1"
       stop-color="#f34f17"
       id="stop17" />
  </linearGradient>
  <filter
     id="e"
     color-interpolation-filters="sRGB"
     height="1.087725"
     width="1.105998"
     x="-.052999"
     y="-.043863">
    <feGaussianBlur
       stdDeviation="8.4801079"
       id="feGaussianBlur20" />
  </filter>
  <filter
     id="f"
     color-interpolation-filters="sRGB"
     height="1.021931"
     width="1.0265"
     x="-.01325"
     y="-.010966">
    <feGaussianBlur
       stdDeviation="2.120027"
       id="feGaussianBlur23" />
  </filter>
  <path
     style="color:#000000;display:inline;overflow:visible;visibility:visible;opacity:0.1;fill:#000000;fill-opacity:1;fill-rule:nonzero;stroke:none;stroke-width:2;marker:none;filter:url(#filter4346);enable-background:accumulate"
     d="M 189.84323,74 C 119.24979,74 111.65402,81.250835 112,151.98706 V 298 444.01294 C 111.65402,514.74917 119.24979,522 189.84323,522 H 386.15677 C 456.75021,522 462.16345,514.72616 464,444.01294 V 298 151.98706 C 464,81.249993 456.75021,74 386.15677,74 Z"
     id="rect4158-9"
     inkscape:connector-curvature="0"
     sodipodi:nodetypes="scccssscsss"
     transform="matrix(0,0.5,-0.5,0,275.82523,-5.3281475)" />
  <path
     sodipodi:nodetypes="scccssscsss"
     inkscape:connector-curvature="0"
     id="path4350"
     d="M 189.84323,74 C 119.24979,74 111.65402,81.250835 112,151.98706 V 298 444.01294 C 111.65402,514.74917 119.24979,522 189.84323,522 H 386.15677 C 456.75021,522 464,514.75001 464,444.01294 V 298 151.98706 C 464,81.249993 456.75021,74 386.15677,74 Z"
     style="color:#000000;display:inline;overflow:visible;visibility:visible;opacity:0.3;fill:url(#linearGradient4358);fill-opacity:1;fill-rule:nonzero;stroke:none;stroke-width:2;marker:none;filter:url(#filter4380);enable-background:accumulate"
     transform="matrix(0,0.5,-0.5,0,275.82523,-5.3281475)" />
  <path
     style="color:#000000;display:inline;overflow:visible;visibility:visible;opacity:0.1;fill:#000000;fill-opacity:1;fill-rule:nonzero;stroke:none;stroke-width:1.02028775;marker:none;enable-background:accumulate"
     d="m 240.83043,87.478254 c 0,-36.098811 -3.69016,-39.983003 -39.68984,-39.806081 H 126.83043 52.520279 c -35.99969,-0.176922 -39.68984,3.70727 -39.68984,39.806081 V 187.86557 c 0,36.09882 3.68973,39.80608 39.68984,39.80608 h 74.310151 74.31016 c 36.00011,0 39.68984,-3.70726 39.68984,-39.80608 z"
     id="rect4158-7"
     inkscape:connector-curvature="0"
     sodipodi:nodetypes="scccssscsss" />
  <path
     style="color:#000000;display:inline;overflow:visible;visibility:visible;fill:url(#linearGradient4886);fill-opacity:1;fill-rule:nonzero;stroke:none;stroke-width:1;marker:none;enable-background:accumulate"
     d="m 238.82523,186.74484 c 0,35.29673 -3.62542,39.09461 -38.99353,38.92161 H 126.82523 53.818769 c -35.36812,0.17299 -38.99353,-3.62488 -38.99353,-38.92161 V 88.588074 c 0,-35.296716 3.625,-38.921616 38.99353,-38.921616 h 73.006461 73.00647 c 35.36853,0 38.99353,3.6249 38.99353,38.921616 z"
     id="rect4158"
     inkscape:connector-curvature="0"
     sodipodi:nodetypes="scccssscsss" />
  <path
     style="color:#000000;display:inline;overflow:visible;visibility:visible;opacity:0.75;fill:#a2bcfe;fill-opacity:1;fill-rule:nonzero;stroke:none;stroke-width:1;marker:none;enable-background:accumulate"
     d="m 14.827939,137.66916 v 8 41.00585 c 0,35.36854 3.625165,38.99415 38.921875,38.99415 H 199.90606 c 35.29673,0 39.09486,-3.62603 38.92187,-38.99414 v -41.00586 -8 z"
     id="rect4158-5"
     inkscape:connector-curvature="0"
     sodipodi:nodetypes="ccssscccc" />
  <path
     style="display:inline;opacity:1;vector-effect:none;fill:#1a7fd4;fill-opacity:1;stroke:none;stroke-width:2;stroke-linecap:round;stroke-linejoin:round;stroke-miterlimit:4;stroke-dasharray:none;stroke-dashoffset:0;stroke-opacity:1;enable-background:new"
     id="path3139"
     sodipodi:type="arc"
     sodipodi:cx="126.82793"
     sodipodi:cy="137.66914"
     sodipodi:rx="48"
     sodipodi:ry="48"
     sodipodi:start="6.2325882"
     sodipodi:end="6.2319424"
     sodipodi:open="true"
     d="m 174.7665,135.24152 a 48,48 0 0 1 -45.50321,50.3658 48,48 0 0 1 -50.373148,-45.49507 48,48 0 0 1 45.486938,-50.380496 48,48 0 0 1 50.38784,45.478806" />
  <rect
     style="display:inline;opacity:1;vector-effect:none;fill:#e7f0fc;fill-opacity:1;stroke:none;stroke-width:2;stroke-linecap:round;stroke-linejoin:round;stroke-miterlimit:4;stroke-dasharray:none;stroke-dashoffset:0;stroke-opacity:1;enable-background:new"
     id="rect3302"
     width="9.6000004"
     height="9.6000004"
     x="122.02794"
     y="132.86914"
     rx="2"
     ry="2" />
  <rect
     style="display:inline;opacity:1;vector-effect:none;fill:#e7f0fc;fill-opacity:1;stroke:none;stroke-width:2;stroke-linecap:round;stroke-linejoin:round;stroke-miterlimit:4;stroke-dasharray:none;stroke-dashoffset:0;stroke-opacity:1;enable-background:new"
     id="rect3302-5"
     width="9.6000004"
     height="9.6000004"
     x="141.22794"
     y="132.86914"
     rx="2"
     ry="2" />
  <rect
     style="display:inline;opacity:1;vector-effect:none;fill:#e7f0fc;fill-opacity:1;stroke:none;stroke-width:2;stroke-linecap:round;stroke-linejoin:round;stroke-miterlimit:4;stroke-dasharray:none;stroke-dashoffset:0;stroke-opacity:1;enable-background:new"
     id="rect3302-0"
     width="9.6000004"
     height="9.6000004"
     x="102.82794"
     y="132.86914"
     rx="2"
     ry="2" />
  <rect
     style="display:inline;opacity:1;vector-effect:none;fill:#e7f0fc;fill-opacity:1;stroke:none;stroke-width:2;stroke-linecap:round;stroke-linejoin:round;stroke-miterlimit:4;stroke-dasharray:none;stroke-dashoffset:0;stroke-opacity:1;enable-background:new"
     id="rect3302-3"
     width="9.6000004"
     height="9.6000004"
     x="102.82794"
     y="113.66915"
     rx="2"
     ry="2" />
  <rect
     style="display:inline;opacity:1;vector-effect:none;fill:#e7f0fc;fill-opacity:1;stroke:none;stroke-width:2;stroke-linecap:round;stroke-linejoin:round;stroke-miterlimit:4;stroke-dasharray:none;stroke-dashoffset:0;stroke-opacity:1;enable-background:new"
     id="rect3302-6"
     width="9.6000004"
     height="9.6000004"
     x="122.02794"
     y="113.66915"
     rx="2"
     ry="2" />
  <rect
     style="display:inline;opacity:1;vector-effect:none;fill:#e7f0fc;fill-opacity:1;stroke:none;stroke-width:2;stroke-linecap:round;stroke-linejoin:round;stroke-miterlimit:4;stroke-dasharray:none;stroke-dashoffset:0;stroke-opacity:1;enable-background:new"
     id="rect3302-1"
     width="9.6000004"
     height="9.6000004"
     x="141.22794"
     y="113.66915"
     rx="2"
     ry="2" />
  <rect
     style="display:inline;opacity:1;vector-effect:none;fill:#e7f0fc;fill-opacity:1;stroke:none;stroke-width:2;stroke-linecap:round;stroke-linejoin:round;stroke-miterlimit:4;stroke-dasharray:none;stroke-dashoffset:0;stroke-opacity:1;enable-background:new"
     id="rect3302-06"
     width="9.6000004"
     height="9.6000004"
     x="141.22794"
     y="152.06915"
     rx="2"
     ry="2" />
  <rect
     style="display:inline;opacity:1;vector-effect:none;fill:#e7f0fc;fill-opacity:1;stroke:none;stroke-width:2;stroke-linecap:round;stroke-linejoin:round;stroke-miterlimit:4;stroke-dasharray:none;stroke-dashoffset:0;stroke-opacity:1;enable-background:new"
     id="rect3302-32"
     width="9.6000004"
     height="9.6000004"
     x="122.02794"
     y="152.06915"
     rx="2"
     ry="2" />
  <rect
     style="display:inline;opacity:1;vector-effect:none;fill:#e7f0fc;fill-opacity:1;stroke:none;stroke-width:2;stroke-linecap:round;stroke-linejoin:round;stroke-miterlimit:4;stroke-dasharray:none;stroke-dashoffset:0;stroke-opacity:1;enable-background:new"
     id="rect3302-061"
     width="9.6000004"
     height="9.6000004"
     x="102.82794"
     y="152.06915"
     rx="2"
     ry="2" />
  <path
     style="color:#000000;display:inline;overflow:visible;visibility:visible;opacity:0.6;fill:#ffffff;fill-opacity:1;fill-rule:nonzero;stroke:none;stroke-width:1;marker:none;enable-background:accumulate"
     d="m 53.818173,49.667201 c -35.36853,0 -38.992187,3.623202 -38.992187,38.919923 v 98.158196 c 0,0.0882 0.0019,0.16224 0.002,0.25 V 90.585174 C 14.827939,55.288454 18.45355,51.663295 53.82208,51.663295 h 73.00585 73.00586 c 35.28016,0 38.97394,3.621035 38.99219,38.671879 v -1.74805 c 0,-35.296721 -3.62561,-38.919923 -38.99414,-38.919923 h -73.00586 z"
     id="rect4158-78"
     inkscape:connector-curvature="0" />
  <path
     style="color:#000000;display:inline;overflow:visible;visibility:visible;opacity:0.2;fill:#000000;fill-opacity:1;fill-rule:nonzero;stroke:none;stroke-width:1;marker:none;enable-background:accumulate"
     d="m 14.825986,184.74532 v 2 c 0,35.29673 3.624067,39.09488 38.992187,38.92188 h 73.007807 73.00586 c 35.36811,0.17299 38.99414,-3.62515 38.99414,-38.92188 v -2 c 0,35.29673 -3.62603,39.09488 -38.99414,38.92188 H 126.82598 53.818173 c -35.36812,0.17299 -38.992187,-3.62515 -38.992187,-38.92188 z"
     id="rect4158-6"
     inkscape:connector-curvature="0" />
  <path
     style="display:inline;fill:none;stroke:#1a7fd4;stroke-width:10;stroke-linecap:round;stroke-linejoin:miter;stroke-miterlimit:4;stroke-dasharray:none;stroke-opacity:1;enable-background:new"
     d="m 91.825235,53.669159 c 0,0 0,-35 34.999995,-35 35,0 35,35 35,35"
     id="path24398-6"
     inkscape:connector-curvature="0"
     sodipodi:nodetypes="csc" />
</svg>
